!!!!SEGMENT: pl-cz--d-ii-31--006_elsner-jozef--msza-b-op-80-sanctus.krn
!!!cenid: 18xx:191
!!!COM: Elsner, Józef
!!!COM-rismid: pe30000957
!!!CDT: 1769/06/01-1854/04/18
!!!CNT: Polish
!!!OPR: Msza B op. 80
!!!OTL: Sanctus
!!!OMV: 006
!!!OMD: SANCTUS.
!!!PDT:
!!!AGN: Sacred; Mass
!!!SMS-siglum: PL-CZ
!!!SMS-shelfmark: D II-31
!!!SMS-shelfwork: 001-006 M
!!!NIFC-rismid:
!!!URL-scan: http://repozytorium.nifc.pl/skany/pl-cz-nut--dii-31
!!!ONB-nifc: UWAGA: części Mszy: Kyrie, Gloria, Graduale Duetto, Credo, Offertorium, Sanctus, Benedictus, Agnus Dei
!!!AIN: 1 bass 1 organ 2 soprn 1 tenor
!!!key:
**kern	**kern	**dynam	**kern	**text	**dynam	**kern	**text	**dynam	**kern	**text	**dynam	**kern	**text	**dynam
*part5	*part5	*part5	*part4	*part4	*part4	*part3	*part3	*part3	*part2	*part2	*part2	*part1	*part1	*part1
*staff6	*staff5	*	*staff4	*staff4	*	*staff3	*staff3	*	*staff2	*staff2	*	*staff1	*staff1	*
*Iorgan	*Iempty	*	*Ibass	*	*	*Itenor	*	*	*Isoprn	*	*	*Isoprn	*	*
*I"Organo.	*	*	*I"Basso.	*	*	*I"Tenore.	*	*	*I"2do Soprano	*	*	*I"1o Soprano	*	*
*I'Org	*	*	*I'B	*	*	*I'T	*	*	*I'S II	*	*	*I'S I	*	*
*clefF4	*clefG2	*	*clefF4	*	*	*clefC4	*	*	*clefG2	*	*	*clefG2	*	*
*k[b-e-]	*k[b-e-]	*	*k[b-e-]	*	*	*k[b-e-]	*	*	*k[b-e-]	*	*	*k[b-e-]	*	*
*B-:	*B-:	*	*B-:	*	*	*B-:	*	*	*B-:	*	*	*B-:	*	*
*M3/4	*M3/4	*	*M3/4	*	*	*M3/4	*	*	*M3/4	*	*	*M3/4	*	*
=1	=1	=1	=1	=1	=1	=1	=1	=1	=1	=1	=1	=1	=1	=1
!	!LO:TX:a:Bi:t=Andante	!	!	!	!LO:DY:b:rj	!	!	!LO:DY:b:rj	!	!	!LO:DY:b:rj	!LO:TX:a:Bi:t=Andante.	!	!LO:DY:b:rj
2.EE-/ [2.E-	2.g\ 2.b- [2.ee-	ff	2.E-\	Swię-	f	2.B-\	Swię-	f	2.g/	Swię-	f	2.ee-\	Swię-	f
=2	=2	=2	=2	=2	=2	=2	=2	=2	=2	=2	=2	=2	=2	=2
4.EE-/ 4.E-]	4.g\ 4.b- 4.ee-]	.	4E-\	-ty	.	4B-\	-ty	.	4g/	-ty	.	4ee-\	-ty	.
.	.	.	4r	.	.	4r	.	.	4r	.	.	4r	.	.
16f\LL	(16ff\LL	.	.	.	.	.	.	.	.	.	.	.	.	.
(16e-\JJ	16ee-\JJ	.	.	.	.	.	.	.	.	.	.	.	.	.
16d\LL	16dd\LL	.	4r	.	.	4r	.	.	4r	.	.	4r	.	.
16e-\	16ee-\	.	.	.	.	.	.	.	.	.	.	.	.	.
16f\)	16ff\)	.	.	.	.	.	.	.	.	.	.	.	.	.
16e-\JJ	16ee-\JJ	.	.	.	.	.	.	.	.	.	.	.	.	.
=3	=3	=3	=3	=3	=3	=3	=3	=3	=3	=3	=3	=3	=3	=3
2.CC/ [2.C	2.g\ 2.cc [2.ee-	.	2.C/	Swię-	.	2.c\	Swię-	.	2.g/	Swię-	.	2.ee-\	Swię-	.
=4	=4	=4	=4	=4	=4	=4	=4	=4	=4	=4	=4	=4	=4	=4
4.CC/ 4.C]	4.g\ 4.cc 4.ee-]	.	4C/	-ty	.	4c\	-ty	.	4g/	-ty	.	4ee-\	-ty	.
.	.	.	4r	.	.	4r	.	.	4r	.	.	4r	.	.
16f\LL	(16ff\LL	.	.	.	.	.	.	.	.	.	.	.	.	.
(16e-\JJ	16ee-\JJ	.	.	.	.	.	.	.	.	.	.	.	.	.
16d\LL	16dd\LL	.	4r	.	.	4r	.	.	4r	.	.	4r	.	.
16e-\	16ee-\	.	.	.	.	.	.	.	.	.	.	.	.	.
16f\)	16ff\	.	.	.	.	.	.	.	.	.	.	.	.	.
16e-\JJ	16ee-\JJ)	.	.	.	.	.	.	.	.	.	.	.	.	.
=5	=5	=5	=5	=5	=5	=5	=5	=5	=5	=5	=5	=5	=5	=5
!LO:S:s=2:note:problem=note-level slur	!LO:TX:a:t=P:problem=niejednoznaczny zapis łuk lub ligatura	!	!	!	!	!	!	!	!	!	!	!	!	!
2.AAAn/ (>2.AAn	2.f\ 2.cc [2.ff	.	2.AAn/	Swię-	.	2.c\	Swię-	.	2.f/	Swię-	.	2.ff\	Swię-	.
=6	=6	=6	=6	=6	=6	=6	=6	=6	=6	=6	=6	=6	=6	=6
4.BBB-/ 4.BB-)	4.f\ 4.b- 4.dd 4.ff]	.	4BB-/	-ty	.	4d\	-ty	.	4f/	-ty	.	4ff\	-ty	.
.	.	.	4r	.	.	4r	.	.	4r	.	.	4r	.	.
*clefG2	*	*	*	*	*	*	*	*	*	*	*	*	*	*
(>16e-/LL 16g	(>16ee-\LL 16gg	.	.	.	.	.	.	.	.	.	.	.	.	.
16d/JJ 16f	16dd\JJ 16ff	.	.	.	.	.	.	.	.	.	.	.	.	.
16c#X/LL 16en	16cc#X\LL 16een	.	4r	.	.	4r	.	.	4r	.	.	4r	.	.
16d/ 16f	16dd\ 16ff	.	.	.	.	.	.	.	.	.	.	.	.	.
16e-X/ 16g	16ee-X\ 16gg	.	.	.	.	.	.	.	.	.	.	.	.	.
16d/JJ) 16f	16dd\JJ) 16ff	.	.	.	.	.	.	.	.	.	.	.	.	.
*clefF4	*	*	*	*	*	*	*	*	*	*	*	*	*	*
=7	=7	=7	=7	=7	=7	=7	=7	=7	=7	=7	=7	=7	=7	=7
4EE-/ 4E-	4g\ 4b- 4gg	.	4E-\	Wład-	.	4B-\	Wład-	.	4g/	Wład-	.	4gg\	Wład-	.
4DD/ 4D	4g\ 4bn 4ff	.	4D\	-ca	.	4Bn\	-ca	.	4g/	-ca	.	4ff\	-ca	.
4CC/ 4C	4g\ 4cc 4ee-	.	4C\	za-	.	4c\	za-	.	4g/	za-	.	4ee-\	za-	.
=8	=8	=8	=8	=8	=8	=8	=8	=8	=8	=8	=8	=8	=8	=8
4BBBn/ 4BBn	4f\ 4g 4dd	.	4BBn/	-stę-	.	4f\	-stę-	.	4g/	-stę-	.	4dd\	-stę-	.
4CC/ 4C	4e-\ 4g 4ee-	.	4C/	-pow	.	4e-\	-pow	.	4g/	-pow	.	4ee-\	-pow	.
4EE-/ 4E-	4a\ 4cc 4gg	.	4E-/	Pan	.	4c\	Pan	.	4a/	Pan	.	4gg\	Pan	.
=9	=9	=9	=9	=9	=9	=9	=9	=9	=9	=9	=9	=9	=9	=9
4DD/ 4D	4b-\ 4dd 4ff	.	4D/	Bog	.	4B-\	Bog	.	4b-/	Bog	.	4ff\	Bog	.
4CC/ 4C	4f\ 4a 4ee-	.	4C/	nie-	.	4A\	nie-	.	4f/	nie-	.	4ee-\	nie-	.
4BBB-/ 4BB-	4f\ 4b- 4dd	.	4BB-/	-po-	.	4B-\	-po-	.	4f/	-po-	.	4dd\	-po-	.
=10	=10	=10	=10	=10	=10	=10	=10	=10	=10	=10	=10	=10	=10	=10
!!LO:LB:g=original
4AAA/ 4AA	4e-\ 4f 4cc	.	4AA/	-ię-	.	4e-\	-ię-	.	4f/	-ię-	.	4cc\	-ię-	.
8BBB-/ 8BB-	8d/ 8f 8b- 8dd	.	4BB-/	-ty	.	4d\	-ty	.	4f/	-ty	.	4dd\	-ty	.
(16A\LL	(16a/LL	.	.	.	.	.	.	.	.	.	.	.	.	.
16B-\JJ	16b-/JJ	.	.	.	.	.	.	.	.	.	.	.	.	.
16A\LL	16a/LL	.	4r	.	.	4r	.	.	4r	.	.	4r	.	.
16B-\	16b-/	.	.	.	.	.	.	.	.	.	.	.	.	.
16c\	16cc/	.	.	.	.	.	.	.	.	.	.	.	.	.
16B-\JJ)	16b-/JJ)	.	.	.	.	.	.	.	.	.	.	.	.	.
=11	=11	=11	=11	=11	=11	=11	=11	=11	=11	=11	=11	=11	=11	=11
*^	*	*	*	*	*	*	*	*	*	*	*	*	*	*
2E-/ 2G	2BB-\	16ee-\LL	.	4BB-/	Peł-	.	4B-\	Peł-	.	4g/	Peł-	.	4ee-\	Peł-	.
.	.	16b-\	.	.	.	.	.	.	.	.	.	.	.	.	.
.	.	16g\	.	.	.	.	.	.	.	.	.	.	.	.	.
.	.	16b-\JJ	.	.	.	.	.	.	.	.	.	.	.	.	.
.	.	16ee-\LL	.	4BB-/	-ne	.	4e-\	-ne	.	4g/	-ne	.	4g/	-ne	.
.	.	16ff\	.	.	.	.	.	.	.	.	.	.	.	.	.
.	.	16gg\	.	.	.	.	.	.	.	.	.	.	.	.	.
.	.	16ff\JJ	.	.	.	.	.	.	.	.	.	.	.	.	.
4C/ 4E-	4BB-\	16ee-\LL	.	4BB-/	iest	.	4c\	iest	.	4e-/	iest	.	4a/	iest	.
.	.	16ff\	.	.	.	.	.	.	.	.	.	.	.	.	.
.	.	16gg\	.	.	.	.	.	.	.	.	.	.	.	.	.
.	.	16aa\JJ	.	.	.	.	.	.	.	.	.	.	.	.	.
=12	=12	=12	=12	=12	=12	=12	=12	=12	=12	=12	=12	=12	=12	=12	=12
2D/	2BB-\	16bb-\LL	.	2BB-/	Nie-	.	2B-\	Nie-	.	2d/	Nie-	.	2b-\	Nie-	.
.	.	16ff\	.	.	.	.	.	.	.	.	.	.	.	.	.
.	.	16dd\	.	.	.	.	.	.	.	.	.	.	.	.	.
.	.	16ff\JJ	.	.	.	.	.	.	.	.	.	.	.	.	.
.	.	16bb-\LL	.	.	.	.	.	.	.	.	.	.	.	.	.
.	.	16aa\	.	.	.	.	.	.	.	.	.	.	.	.	.
.	.	16gg\	.	.	.	.	.	.	.	.	.	.	.	.	.
.	.	16ff\JJ	.	.	.	.	.	.	.	.	.	.	.	.	.
4F/ 4A-X	4BB-\	16ee-\LL	.	4BB-/	-bo	.	4A-X\	-bo	.	4f/	-bo	.	4dd\	-bo	.
.	.	16dd\	.	.	.	.	.	.	.	.	.	.	.	.	.
.	.	16cc\	.	.	.	.	.	.	.	.	.	.	.	.	.
.	.	16dd\JJ	.	.	.	.	.	.	.	.	.	.	.	.	.
=13	=13	=13	=13	=13	=13	=13	=13	=13	=13	=13	=13	=13	=13	=13	=13
2E-/ 2G	2BB-\	16ee-\LL	.	4BB-/	peł-	.	4G\	peł-	.	4g/	peł-	.	4ee-\	peł-	.
.	.	16b-\	.	.	.	.	.	.	.	.	.	.	.	.	.
.	.	16g\	.	.	.	.	.	.	.	.	.	.	.	.	.
.	.	16b-\JJ	.	.	.	.	.	.	.	.	.	.	.	.	.
.	.	16ee-\LL	.	4BB-/	-ny	.	4e-\	-ny	.	4g/	-ny	.	4g/	-ny	.
.	.	16ff\	.	.	.	.	.	.	.	.	.	.	.	.	.
.	.	16gg\	.	.	.	.	.	.	.	.	.	.	.	.	.
.	.	16ff\JJ	.	.	.	.	.	.	.	.	.	.	.	.	.
4C/ 4E-	4BB-\	16ee-\LL	.	4BB-/	iest	.	4c\	iest	.	4e-/	iest	.	4a/	iest	.
.	.	16ff\	.	.	.	.	.	.	.	.	.	.	.	.	.
.	.	16gg\	.	.	.	.	.	.	.	.	.	.	.	.	.
.	.	16aa\JJ	.	.	.	.	.	.	.	.	.	.	.	.	.
=14	=14	=14	=14	=14	=14	=14	=14	=14	=14	=14	=14	=14	=14	=14	=14
2D/	2BB-\	16bb-\LL	.	4BB-/	swiat	.	4B-\	swiat	.	4d/	swiat	.	4b-\	Swiat	.
.	.	16ff\	.	.	.	.	.	.	.	.	.	.	.	.	.
.	.	16dd\	.	.	.	.	.	.	.	.	.	.	.	.	.
.	.	16ff\JJ	.	.	.	.	.	.	.	.	.	.	.	.	.
.	.	16bb-\LL	.	4BB-/	ca-	.	4B-\	ca-	.	4f/	ca-	.	4dd\	ca-	.
.	.	16aa\	.	.	.	.	.	.	.	.	.	.	.	.	.
.	.	16gg\	.	.	.	.	.	.	.	.	.	.	.	.	.
.	.	16ff\JJ	.	.	.	.	.	.	.	.	.	.	.	.	.
4F/ 4A-X	4BB-\	16ee-\LL	.	4BB-/	-ły	.	4A-X\	-ły	.	4f/	-ły	.	4dd\	-ły	.
.	.	16dd\	.	.	.	.	.	.	.	.	.	.	.	.	.
.	.	16cc\	.	.	.	.	.	.	.	.	.	.	.	.	.
.	.	16dd\JJ	.	.	.	.	.	.	.	.	.	.	.	.	.
=15	=15	=15	=15	=15	=15	=15	=15	=15	=15	=15	=15	=15	=15	=15	=15
2.E-/ 2.G	2.BB-\	16ee-\LL	.	4BB-/	Je-	.	4G/	Je-	.	4g/	Je-	.	4ee-\	Je-	.
.	.	16b-\	.	.	.	.	.	.	.	.	.	.	.	.	.
.	.	16g\	.	.	.	.	.	.	.	.	.	.	.	.	.
.	.	16b-\JJ	.	.	.	.	.	.	.	.	.	.	.	.	.
.	.	16ee-\LL	.	4BB-/	-go	.	4B-\	-go	.	4g/	-go	.	4ee-\	-go	.
.	.	16gg\	.	.	.	.	.	.	.	.	.	.	.	.	.
.	.	16bb-\	.	.	.	.	.	.	.	.	.	.	.	.	.
.	.	16gg\JJ	.	.	.	.	.	.	.	.	.	.	.	.	.
.	.	16ee-\LL	.	4BB-/	po-	.	4e-\	po-	.	4g/	po-	.	4ee-\	po-	.
.	.	16b-\	.	.	.	.	.	.	.	.	.	.	.	.	.
.	.	16ee-\	.	.	.	.	.	.	.	.	.	.	.	.	.
.	.	16gg\JJ	.	.	.	.	.	.	.	.	.	.	.	.	.
=16	=16	=16	=16	=16	=16	=16	=16	=16	=16	=16	=16	=16	=16	=16	=16
2.C/ 2.E- 2.F	2.BB-\	16ee-\LL	.	4BB-/	-tę-	.	4c\	-tę-	.	4a/	-tę-	.	4ee-\	-tę-	.
.	.	16cc\	.	.	.	.	.	.	.	.	.	.	.	.	.
.	.	16ee-\	.	.	.	.	.	.	.	.	.	.	.	.	.
.	.	16aa\JJ	.	.	.	.	.	.	.	.	.	.	.	.	.
.	.	16ee-\LL	.	4BB-/	-gi	.	4c\	-gi	.	4a/	-gi	.	4ee-\	-gi	.
.	.	16cc\	.	.	.	.	.	.	.	.	.	.	.	.	.
.	.	16ee-\	.	.	.	.	.	.	.	.	.	.	.	.	.
.	.	16aa\JJ	.	.	.	.	.	.	.	.	.	.	.	.	.
.	.	16ee-\LL	.	4BB-/	i	.	4c\	i	.	4a/	i	.	4ee-\	i	.
.	.	16cc\	.	.	.	.	.	.	.	.	.	.	.	.	.
.	.	16ee-\	.	.	.	.	.	.	.	.	.	.	.	.	.
.	.	16aa\JJ	.	.	.	.	.	.	.	.	.	.	.	.	.
=17	=17	=17	=17	=17	=17	=17	=17	=17	=17	=17	=17	=17	=17	=17	=17
2.D/ [2.F	2.BB-\	16bb-\LL	.	2.BB-/	Chwa-	.	2.B-\	Chwa-	.	2.b-/	Chwa-	.	2.dd\	Chwa-	.
.	.	16ff\	.	.	.	.	.	.	.	.	.	.	.	.	.
.	.	16bb-\	.	.	.	.	.	.	.	.	.	.	.	.	.
.	.	16ddd\JJ	.	.	.	.	.	.	.	.	.	.	.	.	.
.	.	16bb-\LL	.	.	.	.	.	.	.	.	.	.	.	.	.
.	.	16ff\	.	.	.	.	.	.	.	.	.	.	.	.	.
.	.	16bb-\	.	.	.	.	.	.	.	.	.	.	.	.	.
.	.	16ddd\JJ	.	.	.	.	.	.	.	.	.	.	.	.	.
.	.	16bb-\LL	.	.	.	.	.	.	.	.	.	.	.	.	.
.	.	16ff\	.	.	.	.	.	.	.	.	.	.	.	.	.
.	.	16bb-\	.	.	.	.	.	.	.	.	.	.	.	.	.
.	.	16ddd\JJ	.	.	.	.	.	.	.	.	.	.	.	.	.
*v	*v	*	*	*	*	*	*	*	*	*	*	*	*	*	*
=18	=18	=18	=18	=18	=18	=18	=18	=18	=18	=18	=18	=18	=18	=18
2BB-\ 2D 2F]	16bb-\LL	.	2BB-/	-ły	.	2B-\	-ły	.	2b-\	-ły	.	2dd\	-ły	.
.	16ff\	.	.	.	.	.	.	.	.	.	.	.	.	.
.	16bb-\	.	.	.	.	.	.	.	.	.	.	.	.	.
.	16ddd\JJ	.	.	.	.	.	.	.	.	.	.	.	.	.
.	4bb-\	.	.	.	.	.	.	.	.	.	.	.	.	.
8BB-\L 8B-	8b-\L 8bb-	.	8BB-/L	za-	.	8B-\L	za-	.	8b-\L	za-	.	8b-\L	za-	.
8C\J 8c	8cc\J 8ccc	.	8C/J	.	.	8c\J	.	.	8cc\J	.	.	8cc\J	.	.
=19	=19	=19	=19	=19	=19	=19	=19	=19	=19	=19	=19	=19	=19	=19
!!LO:PB:g=original
2D\ 2d	2dd\ 2ddd	.	2D\	-brzmij-	.	2d\	-brzmij-	.	2dd\	-brzmij-	.	2dd\	-brzmij-	.
4BB-\ 4B-	4b-\ 4bb-	.	4BB-/	-cie	.	4B-\	-cie	.	4b-\	-cie	.	4b-\	-cie	.
=20	=20	=20	=20	=20	=20	=20	=20	=20	=20	=20	=20	=20	=20	=20
4F\ 4f	4ff\ 4fff	.	4F\	gó-	.	4f\	gó-	.	4ff\	gó-	.	4ff\	gó-	.
4D\ 4d	4dd\ 4ddd	.	4D\	-ry,	.	4d\	-ry,	.	4dd\	-ry,	.	4dd\	-ry,	.
8BB-\L 8B-	8b-\L 8bb-	.	8B-\L	i	.	8B-\L	i	.	8b-\L	i	.	8b-\L	i	.
8C\J 8c	8cc\J 8ccc	.	8c\J	.	.	8c\J	.	.	8cc\J	.	.	8cc\J	.	.
=21	=21	=21	=21	=21	=21	=21	=21	=21	=21	=21	=21	=21	=21	=21
4D-X\ 4d-X	4dd-X\ 4ddd-X	.	4d-X\	mor-	.	4d-X\	mor-	.	4dd-X\	mor-	.	4dd-X\	mor-	.
4BB-\ 4B-	4b-\ 4bb-	.	4B-\	-skie	.	4B-\	-skie	.	4b-\	-skie	.	4b-\	-skie	.
4GG\ 4G	4g\ 4gg	.	4G\	od-	.	4G\	od-	.	4g/	od-	.	4g/	od-	.
=22	=22	=22	=22	=22	=22	=22	=22	=22	=22	=22	=22	=22	=22	=22
4EEn/ 4En	4en\ 4een	.	4En\	-mę-	.	4En/	-mę-	.	4en/	-mę-	.	4en/	-mę-	.
4FF/ 4F	4f\ 4ff	.	4F\	-ty,	.	4F/	-ty,	.	4f/	-ty,	.	4f/	-ty,	.
4FF/ 4F	8f/L 8a	.	4F\	i	.	8F/L	i	.	4f/	i	.	8a/L	i	.
.	8g/J 8b-	.	.	.	.	8G/J	.	.	.	.	.	8b-/J	.	.
=23	=23	=23	=23	=23	=23	=23	=23	=23	=23	=23	=23	=23	=23	=23
2.FF/ 2.F	4.a\ 4.cc	.	4.F\	wy	.	4.F/	wy	.	4.f/	wy	.	4.cc\	wy	.
.	8b-\ 8dd	.	8F\	na-	.	8B-\	na-	.	8f/	na-	.	8dd\	na-	.
.	8cc\L 8ee-	.	8F\	-ro-	.	8c\	-ro-	.	8f/	-ro-	.	8ee-\	-ro-	.
.	8bn\J 8dd	.	8F\	-dy	.	8Bn\	-dy	.	8f/	-dy	.	8dd\	-dy	.
=24	=24	=24	=24	=24	=24	=24	=24	=24	=24	=24	=24	=24	=24	=24
2.FF/ 2.F	4.cc\ 4.ee-	.	4.F\	je-	.	4.c\	je-	.	4.f/	je-	.	4.ee-\	je-	.
.	8bn\ 8dd	.	8F\	-dno	.	8Bn\	-dno	.	8f/	-dno	.	8dd\	-dno	.
.	8cc\L 8ee-	.	8F\	zgod-	.	8c\	zgo-	.	8f/	zgo-	.	8ee-\	zgo-	.
.	8a\J 8cc	.	8F\	-nem	.	8A\	-dnem	.	8f/	-dnem	.	8ff\	-dnem	.
=25	=25	=25	=25	=25	=25	=25	=25	=25	=25	=25	=25	=25	=25	=25
4FF/ 4F	4b-\ 4dd	.	4F\	pie-	.	4B-\	pie-	.	4f/	pie-	.	4dd\	pie-	.
4FF/ 4F	4a\ 4cc	.	4F\	-niem	.	4A\	-niem	.	4f/	-niem	.	4cc\	-niem	.
4DD/ 4D	4f\ 4b- 4ff	.	4D\	Spie-	.	4B-\	Spie-	.	4b-\	Spie-	.	4ff\	Spie-	.
=26	=26	=26	=26	=26	=26	=26	=26	=26	=26	=26	=26	=26	=26	=26
*	*^	*	*	*	*	*	*	*	*	*	*	*	*	*
*	*	*^	*	*	*	*	*	*	*	*	*	*	*	*	*
2.EE-/ 2.E-	2ee-/ 2gg	4ryy	4b-\	.	2E-\	-waj-	.	(4B-\	-waj-	.	(4b-\	-waj-	.	2gg\	-waj-	.
.	.	4bn/	4a-X\	.	.	.	.	4Bn\)	.	.	4a-X/)	.	.	.	.	.
.	4cc/ 4ee-	4ryy	4g\	.	4E-\	-cie	.	4c\	-cie	.	4g/	-cie	.	4ee-\	-cie	.
*	*v	*v	*v	*	*	*	*	*	*	*	*	*	*	*	*	*
=27	=27	=27	=27	=27	=27	=27	=27	=27	=27	=27	=27	=27	=27	=27
.	8qqb-/ 8qqdd	.	.	.	.	8qqB-/	.	.	.	.	.	8qqdd/	.	.
4FF/ 4F	4f/ 4an 4cc	.	4F\	wiecz-	.	4A\	wiecz-	.	4f/	wiecz-	.	4cc\	wiecz-	.
4FF/ 4F	4f/ 4a 4cc	.	4F\	-nie	.	4A\	-nie	.	4f/	-nie	.	4cc\	-nie	.
4EE-/ 4E-	4f/ 4a 4cc	.	4E-\	Spie-	.	4F/	Spie-	.	4a/	Spie-	.	4cc\	Spie-	.
=28	=28	=28	=28	=28	=28	=28	=28	=28	=28	=28	=28	=28	=28	=28
2.DD/ 2.D	2f\ 2b- 2ff	.	2D/	-waj-	.	2F/	-waj-	.	2b-\	-waj-	.	2ff\	-waj-	.
.	4f\ 4b- 4dd	.	4D/	-cie	.	4B-\	-cie	.	4f/	-cie	.	4dd\	-cie	.
=29	=29	=29	=29	=29	=29	=29	=29	=29	=29	=29	=29	=29	=29	=29
.	8qqcc/	.	.	.	.	.	.	.	.	.	.	8qqcc/	.	.
4GG/ 4G	4d/ 4g 4b-	.	4G\	wiecz-	.	4B-\	wiecz-	.	4d/	wiecz-	.	4b-\	wiecz-	.
4GG/ 4G	4d/ 4g 4b-	.	4G\	-nie	.	4B-\	-nie	.	4d/	-nie	.	4b-\	-nie	.
4r	4r	.	4r	.	.	4r	.	.	4r	.	.	4r	.	.
=30	=30	=30	=30	=30	=30	=30	=30	=30	=30	=30	=30	=30	=30	=30
2.CC/ 2.C	2.g\ 2.cc [2.ee-	.	2.C/	Swię-	.	2.c\	Swię-	.	2.g/	Swię-	.	2.ee-\	Swię-	.
=31	=31	=31	=31	=31	=31	=31	=31	=31	=31	=31	=31	=31	=31	=31
!!LO:LB:g=original
4.CC/ 4.C	4.g\ 4.cc 4.ee-]	.	4C/	-ty	.	4c\	-ty	.	4g/	-ty	.	4ee-\	-ty	.
.	.	.	4r	.	.	4r	.	.	4r	.	.	4r	.	.
8r	(16dd\LL 16ff	.	.	.	.	.	.	.	.	.	.	.	.	.
.	16cc\JJ 16ee-	.	.	.	.	.	.	.	.	.	.	.	.	.
4r	16bn\LL 16dd	.	4r	.	.	4r	.	.	4r	.	.	4r	.	.
.	16cc\ 16ee-	.	.	.	.	.	.	.	.	.	.	.	.	.
.	16dd\ 16ff	.	.	.	.	.	.	.	.	.	.	.	.	.
.	16cc\JJ) 16ee-	.	.	.	.	.	.	.	.	.	.	.	.	.
=32	=32	=32	=32	=32	=32	=32	=32	=32	=32	=32	=32	=32	=32	=32
2.FF/ [2.F	2.f/ 2.a [2.cc	.	2.F\	Swię-	.	2.A\	Swię-	.	2.f/	Swię-	.	2.cc\	Swię-	.
=33	=33	=33	=33	=33	=33	=33	=33	=33	=33	=33	=33	=33	=33	=33
4.FF/ 4.F]	4.f/ 4.a 4.cc]	.	4F\	-ty	.	4A/	-ty	.	4f/	-ty	.	4cc\	-ty	.
.	.	.	4r	.	.	4r	.	.	4r	.	.	4r	.	.
8r	(16b-\LL 16dd	.	.	.	.	.	.	.	.	.	.	.	.	.
.	16a\JJ 16cc	.	.	.	.	.	.	.	.	.	.	.	.	.
!	!LO:TX:a:t=P:problem=niejednoznaczny zapis wysokości dźwięku g# g-?	!	!	!	!	!	!	!	!	!	!	!	!	!
4r	16g-\LL 16bn	.	4r	.	.	4r	.	.	4r	.	.	4r	.	.
.	16a\ 16cc	.	.	.	.	.	.	.	.	.	.	.	.	.
.	16b-X\ 16dd	.	.	.	.	.	.	.	.	.	.	.	.	.
.	16a\JJ) 16cc	.	.	.	.	.	.	.	.	.	.	.	.	.
=34	=34	=34	=34	=34	=34	=34	=34	=34	=34	=34	=34	=34	=34	=34
2.BBB-/ [2.BB-	2.f\ 2.b- [2.dd	.	2.BB-/	Swię-	.	2.B-\	Swię-	.	2.f/	Swię-	.	2.dd\	Swię-	.
=35	=35	=35	=35	=35	=35	=35	=35	=35	=35	=35	=35	=35	=35	=35
2.BBB-/ 2.BB-_	4.f\ 4.b- 4.dd]	.	4BB-/	-ty.	.	4B-\	-ty.	.	4f/	-ty.	.	4dd\	-ty.	.
.	.	.	4r	.	.	4r	.	.	4r	.	.	4r	.	.
.	(16cc\LL 16ee-	.	.	.	.	.	.	.	.	.	.	.	.	.
.	16b-\JJ 16dd	.	.	.	.	.	.	.	.	.	.	.	.	.
.	16a\LL 16cc#X	.	4r	.	.	4r	.	.	4r	.	.	4r	.	.
.	16b-\ 16dd	.	.	.	.	.	.	.	.	.	.	.	.	.
.	16ccn\ 16ee-	.	.	.	.	.	.	.	.	.	.	.	.	.
.	16b-\JJ) 16dd	.	.	.	.	.	.	.	.	.	.	.	.	.
=36	=36	=36	=36	=36	=36	=36	=36	=36	=36	=36	=36	=36	=36	=36
2.BBB-/ 2.BB-_	(>4.d/ 4.b-	.	2.r	.	.	2.r	.	.	2.r	.	.	2.r	.	.
.	16e-/LL 16cc	.	.	.	.	.	.	.	.	.	.	.	.	.
.	16d/JJ 16b-	.	.	.	.	.	.	.	.	.	.	.	.	.
.	16c#X/LL 16a	.	.	.	.	.	.	.	.	.	.	.	.	.
.	16d/ 16b-	.	.	.	.	.	.	.	.	.	.	.	.	.
.	16e-/ 16cc)	.	.	.	.	.	.	.	.	.	.	.	.	.
.	16d/JJ 16b-	.	.	.	.	.	.	.	.	.	.	.	.	.
=37	=37	=37	=37	=37	=37	=37	=37	=37	=37	=37	=37	=37	=37	=37
2.BBB-/ 2.BB-]	(>4.d/ 4.f	.	2.r	.	.	2.r	.	.	2.r	.	.	2.r	.	.
.	16e-/LL 16g	.	.	.	.	.	.	.	.	.	.	.	.	.
.	16d/JJ 16f	.	.	.	.	.	.	.	.	.	.	.	.	.
.	16c#X/LL 16en	.	.	.	.	.	.	.	.	.	.	.	.	.
.	16d/ 16f	.	.	.	.	.	.	.	.	.	.	.	.	.
!	!LO:SIC:s=16e-:v	!	!	!	!	!	!	!	!	!	!	!	!	!
.	16e/ 16g	.	.	.	.	.	.	.	.	.	.	.	.	.
.	16d/JJ) 16f	.	.	.	.	.	.	.	.	.	.	.	.	.
=38	=38	=38	=38	=38	=38	=38	=38	=38	=38	=38	=38	=38	=38	=38
4.BBB-/ 4.BB-	2.d/ [2.f	.	2.r	.	.	2.r	.	.	2.r	.	.	2.r	.	.
(16C/LL	.	.	.	.	.	.	.	.	.	.	.	.	.	.
16BB-/JJ	.	.	.	.	.	.	.	.	.	.	.	.	.	.
16AA/LL	.	.	.	.	.	.	.	.	.	.	.	.	.	.
16BB-/	.	.	.	.	.	.	.	.	.	.	.	.	.	.
16C/	.	.	.	.	.	.	.	.	.	.	.	.	.	.
16BB-/JJ)	.	.	.	.	.	.	.	.	.	.	.	.	.	.
=39	=39	=39	=39	=39	=39	=39	=39	=39	=39	=39	=39	=39	=39	=39
2BBB-/	2d/ 2f]	.	2.r	.	.	2.r	.	.	2.r	.	.	2.r	.	.
4r	4r	.	.	.	.	.	.	.	.	.	.	.	.	.
==	==	==	==	==	==	==	==	==	==	==	==	==	==	==
*-	*-	*-	*-	*-	*-	*-	*-	*-	*-	*-	*-	*-	*-	*-
!!!system-decoration: [s1,s2,s3,s4{(s5,s6)}]
!!!RDF**kern: > = above
!!!RDF**kern: < = below
!!!ENC: Andrzej Kubiczek
!!!END: 2020-03-03
!!!ENC: Marta Lawrence
!!!END: 2020-04-03
